packages/foundations/assets/icons/functional/images/maps/parking_14_filled.svg

<svg width="14" height="14" viewBox="0 0 14 14" fill="none" xmlns="http://www.w3.org/2000/svg">
<g clip-path="url(#clip0_2213_5311)">
<path fill-rule="evenodd" clip-rule="evenodd" d="M11.2 1.40002C11.9732 1.40002 12.6 2.02683 12.6 2.80002V11.2C12.6 11.9732 11.9732 12.6 11.2 12.6H2.80002C2.02683 12.6 1.40002 11.9732 1.40002 11.2V2.80002C1.40002 2.02683 2.02683 1.40002 2.80002 1.40002H11.2ZM6.3927 9.14197L6.39267 7.65832C6.6809 7.69519 6.95299 7.71362 7.20892 7.71362C7.88652 7.71362 8.40242 7.56219 8.75662 7.25932C9.11082 6.95645 9.28792 6.51499 9.28792 5.93492C9.28792 5.37539 9.11724 4.94675 8.77587 4.64902C8.43451 4.35129 7.94299 4.20242 7.30132 4.20242H5.60102C5.31107 4.20242 5.07602 4.43747 5.07602 4.72742V9.14197C5.07602 9.50557 5.37078 9.80032 5.73437 9.80032C6.09796 9.80032 6.3927 9.50556 6.3927 9.14197C6.3927 9.14198 6.3927 9.14196 6.3927 9.14197ZM7.09342 6.86281C6.94969 6.86281 6.46841 6.83349 6.39266 6.81871C6.39266 6.32029 6.39266 5.78316 6.39266 5.20731H7.18582C7.47915 5.20731 7.68833 5.26891 7.81337 5.39211C7.93914 5.51531 8.00202 5.72064 8.00202 6.00811C8.00202 6.31097 7.93144 6.52914 7.79027 6.66261C7.64911 6.79607 7.41682 6.86281 7.09342 6.86281Z" fill="#1A1C1F"/>
</g>
<defs>
<clipPath id="clip0_2213_5311">
<rect width="14" height="14" fill="white"/>
</clipPath>
</defs>
</svg>

<svg xmlns="http://www.w3.org/2000/svg" width="14" height="14" fill="none"><g clip-path="url(#a)"><path fill="#1A1C1F" fill-rule="evenodd" d="M11.2 1.4a1.4 1.4 0 0 1 1.4 1.4v8.4a1.4 1.4 0 0 1-1.4 1.4H2.8a1.4 1.4 0 0 1-1.4-1.4V2.8a1.4 1.4 0 0 1 1.4-1.4zM6.393 9.142V7.658q.432.056.816.056 1.016 0 1.548-.455.53-.454.53-1.324 0-.84-.511-1.286-.512-.447-1.475-.447h-1.7a.525.525 0 0 0-.525.525v4.415a.658.658 0 0 0 1.317 0m.7-2.28a9 9 0 0 1-.7-.043V5.207h.793q.44 0 .627.185.189.185.189.616 0 .454-.212.655-.21.2-.697.2" clip-rule="evenodd"/></g><defs><clipPath id="a"><path fill="#fff" d="M0 0h14v14H0z"/></clipPath></defs></svg>
